src/actions/24/uniassociation.svg

<svg xmlns="http://www.w3.org/2000/svg" viewBox="0 0 24 24">
  <defs id="defs3051">
    <style type="text/css" id="current-color-scheme">
      .ColorScheme-Text {
        color:#2e3440;
      }
      </style>
  </defs><g transform="translate(1,1)">
 <path 
    style="fill:currentColor;fill-opacity:1;stroke:none" 
    d="M 10.5 3 L 7 10 L 7.8945312 10.447266 L 10 6.2363281 L 10 19 L 11 19 L 11 6.2363281 L 13.105469 10.447266 L 14 10 L 10.5 3 z "
	class="ColorScheme-Text"
    />  
</g></svg>

<svg viewBox="0 0 24 24" xmlns="http://www.w3.org/2000/svg">
 <defs>
  <style type="text/css">.ColorScheme-Text {
        color:#2e3440;
      }</style>
 </defs>
 <g transform="translate(1,1)">
  <path class="ColorScheme-Text" d="m10.5 3-3.5 7 0.89453 0.44727 2.1055-4.2109v12.764h1v-12.764l2.1055 4.2109 0.89453-0.44727-3.5-7z" fill="currentColor"/>
 </g>
</svg>
